X:27
T:PEGDRBY7- Brandy O, or Peg of Darby
S:Riley's Flute Melodies, I, #164, 1815.
Q:1/4=60
L:1/4
M:C
K:D
A|A/d/d/d/ (d/c/)B/A/|A/d/d/d/ (d/c/)B/A/|A/d/d/d/ (d/f/)a/f/|\
eAAz/|G/||g/|f/e/f/g/a "f"g/d/|d/B/ A/G/ {G/}FG/A/|\
B/c/d/B/ e/d/c/B/|Addz/f/|\
(g/4f/4g/4a/4) (b/4a/4b/4c'/4) d'/a/f/d/|\
(g/4a/4b/4a/4) (g/4f/4e/4d/4) {d/}cA/d/|B/c/d/B/ e/d/c/B/|Add|]
